RestoDelMundo/Varios/Stkilda.svg

<svg xmlns="http://www.w3.org/2000/svg" xmlns:xlink="http://www.w3.org/1999/xlink" viewBox="0 0 720 720"><defs><clipPath id="b"><use xlink:href="#a"/></clipPath><path id="a" d="M326.716 332.126c.73 13.638 6.666 35.376 32.779 55.504 26.118-20.128 32.05-41.866 32.809-55.504"/></defs><path d="M392.661 387.233q.45.457.45 1.093c0 .43-.15.793-.45 1.098q-.45.449-1.087.449c-.431 0-.793-.15-1.094-.449a1.52 1.52 0 0 1-.443-1.098q0-.637.449-1.093a1.48 1.48 0 0 1 1.088-.449q.637.001 1.087.449m.179-.168a1.73 1.73 0 0 0-1.266-.522q-.74 0-1.262.522a1.71 1.71 0 0 0-.522 1.261c0 .498.169.919.517 1.272q.522.523 1.268.522a1.73 1.73 0 0 0 1.266-.522 1.75 1.75 0 0 0 .523-1.272 1.72 1.72 0 0 0-.524-1.261m-1 1.179a1 1 0 0 1-.329.044h-.313v-.716h.295c.193 0 .328.029.415.077q.13.075.13.286c-.001.15-.063.256-.198.309m-.991 1.059h.349v-.773h.27q.277-.001.387.064c.126.072.184.222.184.449v.154l.01.063c0 .011.006.02.006.024q.002.01.004.02h.324l-.01-.024a.3.3 0 0 1-.02-.102q-.005-.08-.004-.145v-.145a.52.52 0 0 0-.107-.305.47.47 0 0 0-.338-.193.8.8 0 0 0 .285-.097c.126-.082.193-.213.193-.387q0-.368-.305-.497c-.115-.049-.295-.068-.536-.068h-.691zM395.252 366.439l-.705-10.897s-4.873 16.958-17.905 29.758c-.015 0 4.757 7.76 4.77 7.744.634-.608 13.647-10.302 21.594-33.103.034-.101-7.754 6.498-7.754 6.498"/><path fill="none" stroke="#000" stroke-miterlimit="5" stroke-width=".202" d="m395.252 366.439-.705-10.897s-4.873 16.958-17.905 29.758c-.015 0 4.757 7.76 4.77 7.744.634-.608 13.647-10.302 21.594-33.103.034-.101-7.754 6.498-7.754 6.498z"/><path fill="#fff" d="m385.174 385.358 3.543 6.526-7.266.812-4.588-7.28Z"/><path fill="none" stroke="#000" stroke-miterlimit="3.864" stroke-width=".158" d="m385.174 385.358 3.543 6.526-7.266.812-4.588-7.28Z"/><path fill="#e93d42" d="m323.719 366.439.711-10.897s5.085 16.978 18.118 29.777c-.034-.005-5.375 6.414-5.375 7.295 0 .879-13.255-9.872-21.202-32.673-.035-.101 7.748 6.498 7.748 6.498"/><path fill="none" stroke="#000" stroke-miterlimit="5" stroke-width=".202" d="m323.719 366.439.711-10.897s5.085 16.978 18.118 29.777c-.034-.005-5.375 6.414-5.375 7.295 0 .879-13.255-9.872-21.202-32.673-.035-.101 7.748 6.498 7.748 6.498zM342.504 385.344h-8.663"/><path fill="#fff" d="m334.126 385.422-3.934 6.462 6.603.252 5.491-6.691Z"/><path fill="#fff" d="M359.495 393.973c0-.093-12.375 1.087-25.601-8.547l-4.906 6.841s10.378 10.721 30.507 10.721c20.134 0 30.507-10.721 30.507-10.721l-4.9-6.841c-13.227 9.634-25.607 8.454-25.607 8.547"/><path fill="none" stroke="#000" stroke-miterlimit="3.864" stroke-width=".202" d="M359.495 393.973c0-.093-12.375 1.087-25.601-8.547l-4.906 6.841s10.378 10.721 30.507 10.721c20.134 0 30.507-10.721 30.507-10.721l-4.9-6.841c-13.227 9.634-25.607 8.454-25.607 8.547z"/><path d="M372.146 398.903c1.154-.353 1.024-1.504.738-2.557-.285-1.06-.797-2.084-2.127-1.678l-1.169.357 1.3 4.264zM361.414 398.134c.059 1.237.252 2.423 1.553 2.379 1.305-.043 1.42-1.242 1.382-2.479-.028-1.021-.231-2.214-1.532-2.17-1.325.046-1.436 1.25-1.403 2.27M356.909 399.87c.319-.383.397-1.47.411-1.779.034-1.021-.082-2.224-1.406-2.272-1.305-.044-1.499 1.15-1.538 2.171-.029 1.237.082 2.436 1.383 2.479.329.015.706-.106.904-.29l.483.435.261-.3z"/><path fill="#fff" d="M327.78 318.427s-10.446 36.709 31.715 69.203c42.167-32.494 31.721-69.203 31.721-69.203z"/><path fill="none" stroke="#000" stroke-miterlimit="3.864" stroke-width=".202" d="M327.78 318.427s-10.446 36.709 31.715 69.203c42.167-32.494 31.721-69.203 31.721-69.203z"/><path fill="none" stroke="#000" stroke-miterlimit="3.864" stroke-width=".202" d="M326.716 332.126c.73 13.638 6.666 35.376 32.779 55.504 26.118-20.128 32.05-41.866 32.809-55.504"/><path d="M353.965 332.126h11.094v50.945l-5.564 4.559-5.53-4.544Z"/><path fill="none" stroke="#000" stroke-miterlimit="3.864" stroke-width=".026" d="M353.965 332.126h11.094v50.945l-5.564 4.559-5.53-4.544Z"/><path fill="#e93d42" d="M392.279 332.126c.449-8.382-1.064-13.699-1.064-13.699H327.78s-1.518 5.317-1.064 13.699z"/><path fill="none" stroke="#000" stroke-miterlimit="3.864" stroke-width=".202" d="M392.279 332.126c.449-8.382-1.064-13.699-1.064-13.699H327.78s-1.518 5.317-1.064 13.699z"/><path d="M336.418 392.049c-.551 1.107-.952 2.237.208 2.828 1.155.594 1.841-.397 2.407-1.5.474-.908.875-2.049-.285-2.638-1.185-.605-1.866.396-2.33 1.31"/><path fill="#fff" d="M371.551 322.55v-1.542h-5.264v9.083h2.068v-3.997h2.998v-1.542h-2.998v-2.002zm13.782-1.242a4.96 4.96 0 0 0-2.185-.518c-2.871 0-4.834 2.215-4.834 4.724 0 2.436 2.039 4.577 4.795 4.577.793 0 1.508-.222 2.224-.526v-2.05c-.532.551-1.354.938-2.171.938-1.778 0-2.871-1.488-2.871-2.978 0-1.522 1.054-3.045 2.887-3.045.816 0 1.623.352 2.155.938zm2.809 6.076c-.749 0-1.358.595-1.358 1.34a1.37 1.37 0 0 0 1.358 1.367 1.37 1.37 0 0 0 1.353-1.367c0-.745-.609-1.34-1.353-1.34m-15.571 0c-.749 0-1.358.595-1.358 1.34a1.37 1.37 0 0 0 1.358 1.367 1.37 1.37 0 0 0 1.354-1.367c0-.745-.609-1.34-1.354-1.34m-30.952 0c-.744 0-1.353.595-1.353 1.34a1.37 1.37 0 0 0 1.353 1.367 1.37 1.37 0 0 0 1.358-1.367c0-.745-.608-1.34-1.358-1.34m11.254-2.509-.029-3.804h-2.035v9.02h2.035v-4.056l3.369 4.056h2.62l-4.186-4.857 3.964-4.162h-2.509zm-14.386-3.408c-.662-.623-1.997-1.024-2.958-1.024-1.822 0-3.156 1.228-3.156 2.751 0 1.421 1.02 2.016 2.412 2.499.846.28 1.88.546 1.88 1.498 0 .701-.532 1.325-1.392 1.325-.904 0-1.668-.634-1.953-1.339l-1.363 1.131c.745 1.054 1.837 1.783 3.331 1.783 2.21 0 3.558-1.3 3.558-3.133 0-3.074-4.293-2.431-4.293-3.973 0-.595.648-1.035 1.32-1.035.706 0 1.223.29 1.625.754zm22.584 5.917c-.745 0-1.353.595-1.353 1.34a1.37 1.37 0 0 0 1.353 1.367 1.37 1.37 0 0 0 1.358-1.367 1.346 1.346 0 0 0-1.358-1.34m-18.48-4.674h1.223v-1.721h-4.36v1.721h1.17v3.625h1.967z"/><path d="m333.672 392.981 1.146-1.764 1.247.806.242-.371-1.247-.812.797-1.223 1.339.87.242-.378-1.755-1.135-2.427 3.737Z"/><path fill="#fff" d="M338.574 393.156c-.59 1.149-1.015 1.696-1.75 1.323-.73-.372-.536-1.039.044-2.19.444-.89.976-1.513 1.653-1.164.701.354.507 1.15.053 2.031"/><path d="m339.869 394.282.798.324c.542.217.565.633.396 1.048-.111.275-.276.808-.28 1.112l.532.213.039-.092c-.111-.044-.068-.242-.053-.324.077-.329.174-.643.28-.957.16-.575.097-.803-.42-1.069l.005-.009c.507.131.942-.097 1.155-.575.415-.943-.043-1.393-.909-1.74l-1.064-.43-1.673 4.133.46.184z"/><path fill="#fff" d="m340.638 392.377.643.262c.31.125.86.367.585 1.082-.28.726-.889.518-1.107.44l-.725-.295z"/><path d="m343.031 393.344 1.068.435-1.503 3.717.459.185 1.503-3.718 1.068.431.165-.412-2.591-1.049ZM345.226 398.415l1.377-4.239-.469-.155-1.378 4.24ZM346.439 397.714c-.169.778.271 1.267 1.059 1.437.792.168 1.392-.103 1.556-.881l.701-3.307-.483-.101-.662 3.132c-.068.344-.247.885-1.015.72-.773-.163-.716-.729-.638-1.072l.667-3.132-.483-.103zM352.757 396.8c.222-.813-.179-1.323-.977-1.493-.706-.154-1.315.213-1.465.933-.092.431-.063.798.305 1.098.208.17.565.372.783.518.406.26.672.323.532.99-.111.508-.508.687-.991.58-.73-.15-.764-.584-.604-1.223l-.483-.106c-.043.237-.121.585-.078.817.131.624.614.855 1.049.947.836.174 1.455-.199 1.629-1.02.125-.576.034-.9-.725-1.384-.213-.135-.42-.274-.638-.41-.256-.164-.348-.377-.285-.682.073-.334.242-.759.943-.609.483.102.657.494.522.943z"/><path fill="#fff" d="M356.305 399.874c-.184.127-.343.15-.541.15-.759-.004-.923-.831-.88-1.822.048-1.286.203-1.968 1.025-1.938.817.029.923.716.894 2.006-.015.478-.14 1.102-.247 1.271l-.406-.348-.276.318z"/><path d="M358.064 399.397c-.029.798.488 1.198 1.295 1.227.808.029 1.349-.339 1.378-1.137l.115-3.378-.488-.015-.116 3.199c-.005.349-.082.914-.875.886-.788-.029-.827-.596-.812-.943l.116-3.205-.493-.014z"/><path fill="#fff" d="M363.842 398.061c.038 1.291-.068 1.978-.891 2.006-.816.03-.971-.652-1.024-1.938-.038-.991.121-1.794.885-1.822.783-.024 1.001.763 1.03 1.754"/><path d="m367.129 399.938-.257-2.088 1.474-.18-.053-.444-1.475.184-.177-1.45 1.589-.199-.058-.44-2.073.256.542 4.424ZM369.84 399.421l-.923-4.361-.483.107.922 4.355Z"/><path fill="#fff" d="m370.188 395.307.76-.232c.759-.231 1.092.377 1.426 1.335.436 1.261.31 1.865-.387 2.078l-.754.232z"/><path d="m376.438 397.617-.129-.431-1.668.514-.485-1.572 1.557-.478-.13-.425-1.557.472-.43-1.406 1.658-.508-.131-.425-2.131.649 1.305 4.263ZM379.281 396.433l-.17-.415-1.686.681-1.499-3.718-.459.184 1.668 4.133ZM377.951 392.2l.44-.224 2.021 3.97-.44.224ZM380.842 394.514c.363.711 1.011.813 1.727.449.72-.367 1.02-.952.657-1.663l-1.538-3.011-.44.223 1.455 2.852c.164.31.367.841-.334 1.199-.705.361-1.015-.116-1.17-.431l-1.454-2.856-.44.227zM384.787 389.719c-.401-.735-1.049-.832-1.74-.396-.614.381-.798 1.063-.411 1.688.237.376.517.618.985.58.267-.02.668-.127.924-.174.474-.093.711-.232 1.068.343.275.444.116.845-.309 1.111-.629.392-.953.106-1.287-.464l-.415.261c.13.199.314.503.513.639.521.357 1.034.188 1.406-.044.725-.454.914-1.155.464-1.871-.31-.497-.599-.667-1.479-.488-.251.049-.492.097-.744.15-.299.058-.512-.029-.677-.29-.184-.295-.358-.72.251-1.098.422-.266.817-.097 1.03.315z"/><path fill="none" stroke="#000" stroke-miterlimit="3.864" stroke-width=".18" d="m335.939 388.032-1.354.449m48.433-.449 1.354.449"/><path d="m392.212 344.694-3.399 10.699h-58.936l-3.833-10.699Z" clip-path="url(#b)"/><path fill="none" stroke="#000" stroke-miterlimit="3.864" stroke-width=".026" d="m392.212 344.694-3.399 10.699h-58.936l-3.833-10.699Z" clip-path="url(#b)"/></svg>

<svg enable-background="new 0 0 720 720" viewBox="0 0 720 720" xmlns="http://www.w3.org/2000/svg" xmlns:xlink="http://www.w3.org/1999/xlink"><defs><path id="a" d="M 326.716 332.126 c .73 13.638 6.666 35.376 32.779 55.504 c 26.118 -20.128 32.05 -41.866 32.809 -55.504"/><clipPath id="b"><use xlink:href="#a"/></clipPath></defs><g><path d="M 392.661 387.233 c .3 .305 .45 .668 .45 1.093 c 0 .43 -.15 .793 -.45 1.098 c -.3 .299 -.662 .449 -1.087 .449 c -.431 0 -.793 -.15 -1.094 -.449 c -.294 -.305 -.443 -.668 -.443 -1.098 c 0 -.425 .149 -.788 .449 -1.093 c .299 -.299 .662 -.449 1.088 -.449 C 391.999 386.784 392.361 386.935 392.661 387.233 z M 392.84 387.065 c -.348 -.349 -.773 -.522 -1.266 -.522 c -.494 0 -.914 .174 -1.262 .522 c -.349 .348 -.522 .768 -.522 1.261 c 0 .498 .169 .919 .517 1.272 c .349 .349 .77 .522 1.268 .522 c .492 0 .918 -.174 1.266 -.522 c .348 -.353 .523 -.778 .523 -1.272 C 393.362 387.833 393.188 387.408 392.84 387.065 z M 391.84 388.244 c -.078 .028 -.184 .044 -.329 .044 h -.313 v -.716 h .295 c .193 0 .328 .029 .415 .077 c .087 .049 .13 .146 .13 .286 C 392.037 388.085 391.975 388.191 391.84 388.244 z M 390.849 389.303 h .349 v -.773 h .27 c .184 0 .314 .02 .387 .064 c .126 .072 .184 .222 .184 .449 v .154 l .01 .063 c 0 .011 .006 .02 .006 .024 c 0 .006 .004 .015 .004 .02 h .324 l -.01 -.024 c -.01 -.015 -.014 -.048 -.02 -.102 c -.004 -.054 -.004 -.101 -.004 -.145 v -.145 c 0 -.101 -.034 -.203 -.107 -.305 c -.072 -.105 -.184 -.169 -.338 -.193 c .121 -.02 .218 -.053 .285 -.097 c .126 -.082 .193 -.213 .193 -.387 c 0 -.246 -.102 -.41 -.305 -.497 c -.115 -.049 -.295 -.068 -.536 -.068 h -.691 V 389.303 z"/><path d="M 395.252 366.439 l -.705 -10.897 c 0 0 -4.873 16.958 -17.905 29.758 c -.015 0 4.757 7.76 4.77 7.744 c .634 -.608 13.647 -10.302 21.594 -33.103 C 403.04 359.84 395.252 366.439 395.252 366.439 z"/><path d="M 395.252 366.439 l -.705 -10.897 c 0 0 -4.873 16.958 -17.905 29.758 c -.015 0 4.757 7.76 4.77 7.744 c .634 -.608 13.647 -10.302 21.594 -33.103 C 403.04 359.84 395.252 366.439 395.252 366.439 z" fill="none" stroke="#000" stroke-miterlimit="5" stroke-width=".2016"/><path d="M 385.174 385.358 L 388.717 391.884 L 381.451 392.696 L 376.863 385.416 Z" fill="#fff"/><path d="M 385.174 385.358 L 388.717 391.884 L 381.451 392.696 L 376.863 385.416 Z" fill="none" stroke="#000" stroke-miterlimit="3.8636" stroke-width=".1576"/><path d="M 323.719 366.439 l .711 -10.897 c 0 0 5.085 16.978 18.118 29.777 c -.034 -.005 -5.375 6.414 -5.375 7.295 c 0 .879 -13.255 -9.872 -21.202 -32.673 C 315.936 359.84 323.719 366.439 323.719 366.439 z" fill="#e93d42"/><path d="M 323.719 366.439 l .711 -10.897 c 0 0 5.085 16.978 18.118 29.777 c -.034 -.005 -5.375 6.414 -5.375 7.295 c 0 .879 -13.255 -9.872 -21.202 -32.673 C 315.936 359.84 323.719 366.439 323.719 366.439 z" fill="none" stroke="#000" stroke-miterlimit="5" stroke-width=".2016"/><path d="M 342.504 385.344 L 333.841 385.344" fill="none" stroke="#000" stroke-miterlimit="5" stroke-width=".2016"/><path d="M 334.126 385.422 L 330.192 391.884 L 336.795 392.136 L 342.286 385.445 Z" fill="#fff"/><path d="M 359.495 393.973 c 0 -.093 -12.375 1.087 -25.601 -8.547 l -4.906 6.841 c 0 0 10.378 10.721 30.507 10.721 c 20.134 0 30.507 -10.721 30.507 -10.721 l -4.9 -6.841 C 371.875 395.06 359.495 393.88 359.495 393.973 z" fill="#fff"/><path d="M 359.495 393.973 c 0 -.093 -12.375 1.087 -25.601 -8.547 l -4.906 6.841 c 0 0 10.378 10.721 30.507 10.721 c 20.134 0 30.507 -10.721 30.507 -10.721 l -4.9 -6.841 C 371.875 395.06 359.495 393.88 359.495 393.973 z" fill="none" stroke="#000" stroke-miterlimit="3.8636" stroke-width=".2016"/><path d="M 372.146 398.903 c 1.154 -.353 1.024 -1.504 .738 -2.557 c -.285 -1.06 -.797 -2.084 -2.127 -1.678 l -1.169 .357 l 1.3 4.264 L 372.146 398.903 z"/><path d="M 361.414 398.134 c .059 1.237 .252 2.423 1.553 2.379 c 1.305 -.043 1.42 -1.242 1.382 -2.479 c -.028 -1.021 -.231 -2.214 -1.532 -2.17 C 361.492 395.91 361.381 397.114 361.414 398.134 z"/><path d="M 356.909 399.87 c .319 -.383 .397 -1.47 .411 -1.779 c .034 -1.021 -.082 -2.224 -1.406 -2.272 c -1.305 -.044 -1.499 1.15 -1.538 2.171 c -.029 1.237 .082 2.436 1.383 2.479 c .329 .015 .706 -.106 .904 -.29 l .483 .435 l .261 -.3 L 356.909 399.87 z"/><path d="M 327.78 318.427 c 0 0 -10.446 36.709 31.715 69.203 c 42.167 -32.494 31.721 -69.203 31.721 -69.203 H 327.78 z" fill="#fff"/><path d="M 327.78 318.427 c 0 0 -10.446 36.709 31.715 69.203 c 42.167 -32.494 31.721 -69.203 31.721 -69.203 H 327.78 z" fill="none" stroke="#000" stroke-miterlimit="3.8636" stroke-width=".2016"/><path d="M 326.716 332.126 c .73 13.638 6.666 35.376 32.779 55.504 c 26.118 -20.128 32.05 -41.866 32.809 -55.504" fill="none" stroke="#000" stroke-miterlimit="3.8636" stroke-width=".2016"/><path d="M 353.965 332.126 L 365.059 332.126 L 365.059 383.071 L 359.495 387.63 L 353.965 383.086 Z"/><path d="M 353.965 332.126 L 365.059 332.126 L 365.059 383.071 L 359.495 387.63 L 353.965 383.086 Z" fill="none" stroke="#000" stroke-miterlimit="3.8636" stroke-width=".0259"/><path d="M 392.279 332.126 c .449 -8.382 -1.064 -13.699 -1.064 -13.699 H 327.78 c 0 0 -1.518 5.317 -1.064 13.699 H 392.279 z" fill="#e93d42"/><path d="M 392.279 332.126 c .449 -8.382 -1.064 -13.699 -1.064 -13.699 H 327.78 c 0 0 -1.518 5.317 -1.064 13.699 H 392.279 z" fill="none" stroke="#000" stroke-miterlimit="3.8636" stroke-width=".2016"/><path d="M 336.418 392.049 c -.551 1.107 -.952 2.237 .208 2.828 c 1.155 .594 1.841 -.397 2.407 -1.5 c .474 -.908 .875 -2.049 -.285 -2.638 C 337.563 390.134 336.882 391.135 336.418 392.049 z"/><path d="M 371.551 322.55 v -1.542 h -5.264 v 9.083 h 2.068 v -3.997 h 2.998 v -1.542 h -2.998 v -2.002 H 371.551 z M 385.333 321.308 c -.662 -.328 -1.417 -.518 -2.185 -.518 c -2.871 0 -4.834 2.215 -4.834 4.724 c 0 2.436 2.039 4.577 4.795 4.577 c .793 0 1.508 -.222 2.224 -.526 v -2.05 c -.532 .551 -1.354 .938 -2.171 .938 c -1.778 0 -2.871 -1.488 -2.871 -2.978 c 0 -1.522 1.054 -3.045 2.887 -3.045 c .816 0 1.623 .352 2.155 .938 V 321.308 z M 388.142 327.384 c -.749 0 -1.358 .595 -1.358 1.34 c 0 .744 .609 1.367 1.358 1.367 c .744 0 1.353 -.623 1.353 -1.367 C 389.495 327.979 388.886 327.384 388.142 327.384 z M 372.571 327.384 c -.749 0 -1.358 .595 -1.358 1.34 c 0 .744 .609 1.367 1.358 1.367 c .745 0 1.354 -.623 1.354 -1.367 C 373.925 327.979 373.316 327.384 372.571 327.384 z M 341.619 327.384 c -.744 0 -1.353 .595 -1.353 1.34 c 0 .744 .609 1.367 1.353 1.367 c .75 0 1.358 -.623 1.358 -1.367 C 342.977 327.979 342.369 327.384 341.619 327.384 z M 352.873 324.875 l -.029 -3.804 h -2.035 v 9.02 h 2.035 v -4.056 l 3.369 4.056 h 2.62 l -4.186 -4.857 l 3.964 -4.162 h -2.509 L 352.873 324.875 z M 338.487 321.467 c -.662 -.623 -1.997 -1.024 -2.958 -1.024 c -1.822 0 -3.156 1.228 -3.156 2.751 c 0 1.421 1.02 2.016 2.412 2.499 c .846 .28 1.88 .546 1.88 1.498 c 0 .701 -.532 1.325 -1.392 1.325 c -.904 0 -1.668 -.634 -1.953 -1.339 l -1.363 1.131 c .745 1.054 1.837 1.783 3.331 1.783 c 2.21 0 3.558 -1.3 3.558 -3.133 c 0 -3.074 -4.293 -2.431 -4.293 -3.973 c 0 -.595 .648 -1.035 1.32 -1.035 c .706 0 1.223 .29 1.625 .754 L 338.487 321.467 z M 361.071 327.384 c -.745 0 -1.353 .595 -1.353 1.34 c 0 .744 .609 1.367 1.353 1.367 c .749 0 1.358 -.623 1.358 -1.367 C 362.43 327.979 361.82 327.384 361.071 327.384 z M 342.591 322.71 h 1.223 v -1.721 h -4.36 v 1.721 h 1.17 v 3.625 h 1.967 V 322.71 z" fill="#fff"/><path d="M 333.672 392.981 L 334.818 391.217 L 336.065 392.023 L 336.307 391.652 L 335.06 390.84 L 335.857 389.617 L 337.196 390.487 L 337.438 390.109 L 335.683 388.974 L 333.256 392.711 Z"/><path d="M 338.574 393.156 c -.59 1.149 -1.015 1.696 -1.75 1.323 c -.73 -.372 -.536 -1.039 .044 -2.19 c .444 -.89 .976 -1.513 1.653 -1.164 C 339.222 391.479 339.028 392.275 338.574 393.156 z" fill="#fff"/><path d="M 339.869 394.282 l .798 .324 c .542 .217 .565 .633 .396 1.048 c -.111 .275 -.276 .808 -.28 1.112 l .532 .213 l .039 -.092 c -.111 -.044 -.068 -.242 -.053 -.324 c .077 -.329 .174 -.643 .28 -.957 c .16 -.575 .097 -.803 -.42 -1.069 l .005 -.009 c .507 .131 .942 -.097 1.155 -.575 c .415 -.943 -.043 -1.393 -.909 -1.74 l -1.064 -.43 l -1.673 4.133 l .46 .184 L 339.869 394.282 z"/><path d="M 340.638 392.377 l .643 .262 c .31 .125 .86 .367 .585 1.082 c -.28 .726 -.889 .518 -1.107 .44 l -.725 -.295 L 340.638 392.377 z" fill="#fff"/><path d="M 343.031 393.344 L 344.099 393.779 L 342.596 397.496 L 343.055 397.681 L 344.558 393.963 L 345.626 394.394 L 345.791 393.982 L 343.2 392.933 Z"/><path d="M 345.226 398.415 L 346.603 394.176 L 346.134 394.021 L 344.756 398.261 Z"/><path d="M 346.439 397.714 c -.169 .778 .271 1.267 1.059 1.437 c .792 .168 1.392 -.103 1.556 -.881 l .701 -3.307 l -.483 -.101 l -.662 3.132 c -.068 .344 -.247 .885 -1.015 .72 c -.773 -.163 -.716 -.729 -.638 -1.072 l .667 -3.132 l -.483 -.103 L 346.439 397.714 z"/><path d="M 352.757 396.8 c .222 -.813 -.179 -1.323 -.977 -1.493 c -.706 -.154 -1.315 .213 -1.465 .933 c -.092 .431 -.063 .798 .305 1.098 c .208 .17 .565 .372 .783 .518 c .406 .26 .672 .323 .532 .99 c -.111 .508 -.508 .687 -.991 .58 c -.73 -.15 -.764 -.584 -.604 -1.223 l -.483 -.106 c -.043 .237 -.121 .585 -.078 .817 c .131 .624 .614 .855 1.049 .947 c .836 .174 1.455 -.199 1.629 -1.02 c .125 -.576 .034 -.9 -.725 -1.384 c -.213 -.135 -.42 -.274 -.638 -.41 c -.256 -.164 -.348 -.377 -.285 -.682 c .073 -.334 .242 -.759 .943 -.609 c .483 .102 .657 .494 .522 .943 L 352.757 396.8 z"/><path d="M 356.305 399.874 c -.184 .127 -.343 .15 -.541 .15 c -.759 -.004 -.923 -.831 -.88 -1.822 c .048 -1.286 .203 -1.968 1.025 -1.938 c .817 .029 .923 .716 .894 2.006 c -.015 .478 -.14 1.102 -.247 1.271 l -.406 -.348 l -.276 .318 L 356.305 399.874 z" fill="#fff"/><path d="M 358.064 399.397 c -.029 .798 .488 1.198 1.295 1.227 c .808 .029 1.349 -.339 1.378 -1.137 l .115 -3.378 l -.488 -.015 l -.116 3.199 c -.005 .349 -.082 .914 -.875 .886 c -.788 -.029 -.827 -.596 -.812 -.943 l .116 -3.205 l -.493 -.014 L 358.064 399.397 z"/><path d="M 363.842 398.061 c .038 1.291 -.068 1.978 -.891 2.006 c -.816 .03 -.971 -.652 -1.024 -1.938 c -.038 -.991 .121 -1.794 .885 -1.822 C 363.595 396.283 363.813 397.07 363.842 398.061 z" fill="#fff"/><path d="M 367.129 399.938 L 366.872 397.85 L 368.346 397.67 L 368.293 397.226 L 366.818 397.41 L 366.641 395.96 L 368.23 395.761 L 368.172 395.321 L 366.099 395.577 L 366.641 400.001 Z"/><path d="M 369.84 399.421 L 368.917 395.06 L 368.434 395.167 L 369.356 399.522 Z"/><path d="M 370.188 395.307 l .76 -.232 c .759 -.231 1.092 .377 1.426 1.335 c .436 1.261 .31 1.865 -.387 2.078 l -.754 .232 L 370.188 395.307 z" fill="#fff"/><path d="M 376.438 397.617 L 376.309 397.186 L 374.641 397.7 L 374.156 396.128 L 375.713 395.65 L 375.583 395.225 L 374.026 395.697 L 373.596 394.291 L 375.254 393.783 L 375.123 393.358 L 372.992 394.007 L 374.297 398.27 Z"/><path d="M 379.281 396.433 L 379.111 396.018 L 377.425 396.699 L 375.926 392.981 L 375.467 393.165 L 377.135 397.298 Z"/><path d="M 378.915 391.835 H 379.409 V 396.29 H 378.915 Z" transform="matrix(.8912 -.4537 .4537 .8912 -137.5136 214.9102)"/><path d="M 380.842 394.514 c .363 .711 1.011 .813 1.727 .449 c .72 -.367 1.02 -.952 .657 -1.663 l -1.538 -3.011 l -.44 .223 l 1.455 2.852 c .164 .31 .367 .841 -.334 1.199 c -.705 .361 -1.015 -.116 -1.17 -.431 l -1.454 -2.856 l -.44 .227 L 380.842 394.514 z"/><path d="M 384.787 389.719 c -.401 -.735 -1.049 -.832 -1.74 -.396 c -.614 .381 -.798 1.063 -.411 1.688 c .237 .376 .517 .618 .985 .58 c .267 -.02 .668 -.127 .924 -.174 c .474 -.093 .711 -.232 1.068 .343 c .275 .444 .116 .845 -.309 1.111 c -.629 .392 -.953 .106 -1.287 -.464 l -.415 .261 c .13 .199 .314 .503 .513 .639 c .521 .357 1.034 .188 1.406 -.044 c .725 -.454 .914 -1.155 .464 -1.871 c -.31 -.497 -.599 -.667 -1.479 -.488 c -.251 .049 -.492 .097 -.744 .15 c -.299 .058 -.512 -.029 -.677 -.29 c -.184 -.295 -.358 -.72 .251 -1.098 c .422 -.266 .817 -.097 1.03 .315 L 384.787 389.719 z"/><path d="M 335.939 388.032 l -1.354 .449 M 383.018 388.032 l 1.354 .449" fill="none" stroke="#000" stroke-miterlimit="3.8636" stroke-width=".18"/><g><path clip-path="url(#b)" d="M 392.212 344.694 L 388.813 355.393 L 329.877 355.393 L 326.044 344.694 Z"/><path clip-path="url(#b)" d="M 392.212 344.694 L 388.813 355.393 L 329.877 355.393 L 326.044 344.694 Z" fill="none" stroke="#000" stroke-miterlimit="3.8636" stroke-width=".0259"/></g></g></svg>
